svg/fluentui-system-icons/ic_fluent_symbols_20_regular.svg

<svg width="20" height="20" viewBox="0 0 20 20" fill="none" xmlns="http://www.w3.org/2000/svg">
<path d="M14.142 7.97411C14.3372 8.16933 14.6538 8.16933 14.8491 7.97411L17.4024 5.42135C18.2039 4.63913 18.1888 3.37069 17.4156 2.59086C16.632 1.80044 15.3611 1.80647 14.5751 2.58843L14.4954 2.66786L14.4168 2.58929C13.6352 1.80787 12.368 1.80787 11.5864 2.58929C10.8048 3.37072 10.8048 4.63766 11.5864 5.41909L14.142 7.97411ZM12.2935 4.71212C11.9024 4.32114 11.9024 3.68724 12.2935 3.29626C12.6846 2.90528 13.3186 2.90528 13.7097 3.29626L14.4962 4.0826L14.9944 3.58284C15.0786 3.49851 15.1863 3.39089 15.2805 3.29712C15.6798 2.89985 16.3164 2.90234 16.7054 3.29469C17.0989 3.69158 17.0971 4.32348 16.7025 4.70723L14.4955 6.91366L12.2935 4.71212ZM2 5.50252C2 3.56991 3.56704 2.00323 5.50007 2.00323C7.43311 2.00323 9.00015 3.56991 9.00015 5.50252C9.00015 7.43513 7.43311 9.00182 5.50007 9.00182C3.56704 9.00182 2 7.43513 2 5.50252ZM5.50007 3.00302C4.99053 3.00302 4.51659 3.15543 4.12137 3.41712L7.58593 6.88091C7.84769 6.48578 8.00013 6.01195 8.00013 5.50252C8.00013 4.12209 6.88081 3.00302 5.50007 3.00302ZM3.00002 5.50252C3.00002 6.88295 4.11933 8.00202 5.50007 8.00202C6.00964 8.00202 6.48359 7.8496 6.87882 7.58789L3.41424 4.12408C3.15247 4.51922 3.00002 4.99307 3.00002 5.50252ZM12.3353 13.2502C12.7685 12.5024 13.5763 12.0012 14.5006 12.0012C15.318 12.0012 16.0444 12.3934 16.5009 13.001H15.4983C15.2222 13.001 14.9983 13.2248 14.9983 13.5009C14.9983 13.777 15.2222 14.0008 15.4983 14.0008H17.5C17.7761 14.0008 18 13.777 18 13.5009V11.5013C18 11.2252 17.7761 11.0014 17.5 11.0014C17.2238 11.0014 17 11.2252 17 11.5013V12.0512C16.365 11.4036 15.48 11.0014 14.5006 11.0014C13.2051 11.0014 12.0746 11.7054 11.4699 12.7492C11.3316 12.9881 11.4131 13.2939 11.652 13.4323C11.891 13.5707 12.1969 13.4891 12.3353 13.2502ZM11.9987 16.9477L11.9983 17.5005C11.998 17.7766 11.774 18.0002 11.4978 18C11.2217 17.9998 10.998 17.7758 10.9982 17.4997L10.9999 15.5001C11.0001 15.2242 11.2239 15.0006 11.4999 15.0006H13.4999C13.7761 15.0006 13.9999 15.2244 13.9999 15.5005C13.9999 15.7766 13.7761 16.0004 13.4999 16.0004H12.5002C12.9567 16.608 13.6832 17.0002 14.5006 17.0002C15.4257 17.0002 16.2341 16.4981 16.667 15.7492C16.8052 15.5102 17.111 15.4284 17.3501 15.5665C17.5892 15.7047 17.671 16.0105 17.5328 16.2495C16.9286 17.2948 15.7972 18 14.5006 18C13.5198 18 12.6338 17.5967 11.9987 16.9477ZM5.50007 11.0014C5.77622 11.0014 6.00008 11.2252 6.00008 11.5013V14.0008H8.50014C8.77628 14.0008 9.00015 14.2246 9.00015 14.5007C9.00015 14.7768 8.77628 15.0006 8.50014 15.0006H6.00008V17.5001C6.00008 17.7762 5.77622 18 5.50007 18C5.22393 18 5.00006 17.7762 5.00006 17.5001V15.0006H2.50001C2.22386 15.0006 2 14.7768 2 14.5007C2 14.2246 2.22386 14.0008 2.50001 14.0008H5.00006V11.5013C5.00006 11.2252 5.22393 11.0014 5.50007 11.0014Z" fill="#212121"/>
</svg>

<svg xmlns="http://www.w3.org/2000/svg" width="20" height="20"><path d="M14.142 7.974a.5.5 0 0 0 .707 0l2.553-2.553a1.99 1.99 0 0 0 .014-2.83 2.005 2.005 0 0 0-2.84-.003l-.08.08-.08-.079a2.002 2.002 0 0 0-2.83 2.83l2.556 2.555Zm-1.848-3.262a1 1 0 1 1 1.416-1.416l.786.787.498-.5.287-.286a1.005 1.005 0 0 1 1.424-.002.992.992 0 0 1-.002 1.412l-2.207 2.207-2.203-2.202ZM2 5.502a3.5 3.5 0 1 1 7 .001 3.5 3.5 0 0 1-7 0Zm3.5-2.499c-.51 0-.983.152-1.379.414l3.465 3.464A2.5 2.5 0 0 0 5.5 3.003ZM3 5.503a2.5 2.5 0 0 0 3.879 2.085L3.414 4.124A2.487 2.487 0 0 0 3 5.503Zm9.335 7.747a2.499 2.499 0 0 1 4.166-.249h-1.003a.5.5 0 1 0 0 1H17.5a.5.5 0 0 0 .5-.5v-2a.5.5 0 0 0-1 0v.55a3.5 3.5 0 0 0-5.53.698.5.5 0 0 0 .865.501ZM12 16.948v.552a.5.5 0 0 1-1 0v-2a.5.5 0 0 1 .5-.5h2a.5.5 0 1 1 0 1h-1a2.499 2.499 0 0 0 4.167-.251.5.5 0 0 1 .866.5 3.499 3.499 0 0 1-5.534.699ZM5.5 11a.5.5 0 0 1 .5.5V14h2.5a.5.5 0 1 1 0 1H6v2.5a.5.5 0 0 1-1 0V15H2.5a.5.5 0 1 1 0-1H5v-2.5a.5.5 0 0 1 .5-.5Z"/></svg>
